public/assets/Mostchoice.svg

<svg width="97" height="19" viewBox="0 0 97 19" fill="none" xmlns="http://www.w3.org/2000/svg">
<g opacity="0.88">
<path d="M0.00927734 0L45.2503 0.0235155L96.1465 0.0499705L91.4291 9.33778L96.1371 18.1984L46.1834 18.1724L-0.000155891 18.1484L4.71706 9.29271L0.00927734 0Z" fill="#B68EFC"/>
<path d="M11.6316 4.36307L13.2296 4.3639L16.0045 11.1494L16.1068 11.1495L18.8887 4.36684L20.4867 4.36767L20.4822 13.0949L19.2293 13.0943L19.2326 6.77895L19.1517 6.77891L16.5745 13.0801L15.5348 13.0796L12.9642 6.77143L12.8832 6.77139L12.8799 13.091L11.6271 13.0903L11.6316 4.36307ZM25.0514 13.2294C24.4377 13.2291 23.9023 13.0882 23.4451 12.8067C22.9878 12.5252 22.6329 12.1316 22.3803 11.6258C22.1277 11.1199 22.0016 10.529 22.002 9.85284C22.0023 9.17386 22.1291 8.58017 22.3822 8.07178C22.6353 7.56339 22.9906 7.16869 23.4481 6.88768C23.9057 6.60667 24.4412 6.46632 25.0549 6.46664C25.6685 6.46696 26.204 6.60786 26.6612 6.88935C27.1184 7.17084 27.4733 7.56591 27.7259 8.07456C27.9785 8.58321 28.1046 9.17703 28.1043 9.85601C28.1039 10.5321 27.9772 11.123 27.7241 11.6285C27.471 12.1341 27.1157 12.5274 26.6581 12.8084C26.2006 13.0894 25.665 13.2297 25.0514 13.2294ZM25.0562 12.1598C25.4539 12.16 25.7835 12.0551 26.045 11.845C26.3065 11.6349 26.4998 11.3552 26.625 11.0058C26.753 10.6564 26.8171 10.2715 26.8173 9.85108C26.8175 9.43346 26.7538 9.04991 26.6262 8.70041C26.5013 8.34807 26.3083 8.0653 26.0471 7.8521C25.7858 7.63889 25.4563 7.53219 25.0586 7.53198C24.658 7.53177 24.3256 7.63813 24.0613 7.85106C23.7998 8.064 23.605 8.34657 23.477 8.69877C23.3518 9.04814 23.2891 9.43163 23.2889 9.84924C23.2887 10.2697 23.351 10.6547 23.4758 11.0042C23.6035 11.3537 23.7979 11.6336 24.0592 11.844C24.3233 12.0543 24.6556 12.1596 25.0562 12.1598ZM34.4322 8.15475L33.2773 8.3587C33.229 8.21094 33.1524 8.07028 33.0474 7.9367C32.9452 7.80313 32.806 7.69368 32.6299 7.60836C32.4538 7.52304 32.2337 7.48031 31.9695 7.48018C31.6087 7.47999 31.3075 7.5608 31.0659 7.7226C30.8244 7.88157 30.7035 8.08747 30.7034 8.34031C30.7033 8.55906 30.7842 8.73524 30.946 8.86885C31.1079 9.00246 31.3692 9.11197 31.73 9.19738L32.7696 9.43656C33.3718 9.57608 33.8206 9.7908 34.1159 10.0807C34.4112 10.3707 34.5587 10.7471 34.5585 11.2102C34.5583 11.6023 34.4444 11.9516 34.217 12.2583C33.9924 12.5622 33.6784 12.8007 33.2749 12.9738C32.8742 13.1468 32.4097 13.2332 31.8813 13.233C31.1483 13.2326 30.5504 13.076 30.0875 12.7633C29.6246 12.4477 29.3407 12.0001 29.2359 11.4205L30.4675 11.2337C30.5441 11.5547 30.7016 11.7977 30.9402 11.9626C31.1787 12.1247 31.4898 12.2058 31.8733 12.206C32.2909 12.2062 32.6247 12.1197 32.8748 11.9466C33.1249 11.7706 33.25 11.5561 33.2502 11.3033C33.2503 11.0987 33.1737 10.9268 33.0203 10.7875C32.8698 10.6483 32.6383 10.543 32.3259 10.4718L31.2181 10.2284C30.6073 10.0888 30.1557 9.86702 29.8633 9.56289C29.5737 9.25876 29.429 8.87374 29.4292 8.40783C29.4294 8.02147 29.5376 7.68346 29.7536 7.3938C29.9697 7.10414 30.2681 6.87844 30.6489 6.7167C31.0296 6.55213 31.4657 6.46997 31.9572 6.47023C32.6646 6.47059 33.2214 6.62429 33.6274 6.93132C34.0335 7.23551 34.3018 7.64332 34.4322 8.15475ZM39.0172 6.55912L39.0167 7.58185L35.4414 7.57999L35.4419 6.55726L39.0172 6.55912ZM36.4015 4.98958L37.6757 4.99024L37.6725 11.182C37.6723 11.4292 37.7092 11.6153 37.783 11.7403C37.8568 11.8625 37.9519 11.9464 38.0683 11.9919C38.1876 12.0345 38.3169 12.0559 38.4561 12.056C38.5584 12.056 38.6479 12.049 38.7246 12.0348C38.8013 12.0207 38.861 12.0093 38.9036 12.0008L39.1331 13.0535C39.0593 13.0819 38.9541 13.1102 38.8178 13.1386C38.6814 13.1697 38.5109 13.1867 38.3064 13.1894C37.9711 13.1949 37.6587 13.1351 37.369 13.01C37.0792 12.8848 36.845 12.6915 36.6661 12.4301C36.4873 12.1686 36.398 11.8404 36.3982 11.4455L36.4015 4.98958ZM50.9529 7.22158L49.6234 7.22089C49.5724 6.93677 49.4774 6.68672 49.3383 6.47074C49.1992 6.25476 49.0288 6.07143 48.8272 5.92076C48.6256 5.77008 48.3998 5.65633 48.1498 5.57949C47.9027 5.50266 47.6399 5.46417 47.3615 5.46403C46.8587 5.46377 46.4083 5.58995 46.0105 5.84259C45.6155 6.09522 45.3028 6.4658 45.0724 6.95432C44.8449 7.44283 44.7309 8.03937 44.7306 8.74391C44.7302 9.45414 44.8435 10.0536 45.0705 10.5424C45.3004 11.0311 45.6141 11.4006 46.0117 11.6508C46.4093 11.901 46.8567 12.0263 47.3538 12.0265C47.6294 12.0267 47.8908 11.9899 48.138 11.9161C48.388 11.8396 48.6139 11.7275 48.8157 11.5798C49.0175 11.4322 49.1881 11.2519 49.3274 11.0389C49.4695 10.8231 49.5677 10.576 49.6218 10.2976L50.9513 10.3025C50.8801 10.7315 50.7421 11.1263 50.5374 11.487C50.3355 11.8448 50.0754 12.1544 49.7571 12.4156C49.4416 12.6739 49.0807 12.874 48.6744 13.0158C48.268 13.1577 47.8248 13.2285 47.3447 13.2282C46.589 13.2278 45.9158 13.0485 45.3251 12.6902C44.7344 12.3291 44.2687 11.8133 43.9282 11.1426C43.5904 10.472 43.4218 9.67221 43.4223 8.74323C43.4228 7.81141 43.5937 7.01179 43.9349 6.34435C44.2762 5.67407 44.7424 5.16011 45.3335 4.80246C45.9245 4.44197 46.5965 4.26193 47.3494 4.26232C47.8124 4.26256 48.2442 4.32954 48.6447 4.46327C49.048 4.59417 49.4102 4.78754 49.7311 5.04338C50.0519 5.29639 50.3174 5.60619 50.5274 5.97278C50.7375 6.33652 50.8793 6.75279 50.9529 7.22158ZM53.6994 9.22585L53.6974 13.1122L52.4232 13.1115L52.4278 4.38427L53.6849 4.38493L53.6832 7.63209L53.7642 7.63213C53.9177 7.27994 54.1523 7.00023 54.4677 6.79301C54.7832 6.58578 55.1952 6.4823 55.7037 6.48257C56.1525 6.4828 56.5445 6.57534 56.8797 6.76017C57.2176 6.945 57.4789 7.22071 57.6633 7.58728C57.8506 7.95101 57.9442 8.40561 57.9439 8.95106L57.9417 13.1144L56.6676 13.1138L56.6696 9.10381C56.6699 8.6237 56.5465 8.25147 56.2995 7.98714C56.0525 7.71997 55.7088 7.58626 55.2684 7.58604C54.9673 7.58588 54.6974 7.64966 54.4587 7.77738C54.2228 7.90509 54.0366 8.0925 53.9002 8.33959C53.7665 8.58384 53.6996 8.87925 53.6994 9.22585ZM62.399 13.2488C61.7854 13.2485 61.2499 13.1076 60.7927 12.8261C60.3355 12.5446 59.9806 12.151 59.728 11.6452C59.4754 11.1394 59.3493 10.5484 59.3496 9.87225C59.35 9.19327 59.4767 8.59959 59.7298 8.0912C59.9829 7.5828 60.3383 7.1881 60.7958 6.90709C61.2533 6.62608 61.7889 6.48573 62.4025 6.48605C63.0162 6.48637 63.5516 6.62727 64.0089 6.90876C64.4661 7.19025 64.821 7.58532 65.0736 8.09397C65.3262 8.60263 65.4523 9.19644 65.4519 9.87542C65.4516 10.5516 65.3248 11.1424 65.0717 11.648C64.8186 12.1535 64.4633 12.5468 64.0058 12.8278C63.5482 13.1088 63.0127 13.2492 62.399 13.2488ZM62.4038 12.1792C62.8016 12.1794 63.1312 12.0745 63.3926 11.8644C63.6541 11.6543 63.8474 11.3746 63.9726 11.0252C64.1006 10.6759 64.1648 10.2909 64.165 9.87049C64.1652 9.45288 64.1015 9.06932 63.9738 8.71982C63.849 8.36748 63.656 8.08471 63.3947 7.87151C63.1335 7.65831 62.804 7.5516 62.4062 7.55139C62.0057 7.55119 61.6732 7.65755 61.4089 7.87048C61.1474 8.08341 60.9527 8.36598 60.8247 8.71819C60.6995 9.06755 60.6368 9.45104 60.6366 9.86866C60.6364 10.2891 60.6987 10.6741 60.8235 11.0236C60.9511 11.3731 61.1456 11.653 61.4068 11.8634C61.6709 12.0737 62.0033 12.179 62.4038 12.1792ZM66.8725 13.1191L66.8759 6.5736L68.15 6.57427L68.1466 13.1197L66.8725 13.1191ZM67.5199 5.56399C67.2983 5.56388 67.108 5.48992 66.9489 5.34211C66.7928 5.19146 66.7147 5.01244 66.7148 4.80505C66.715 4.59483 66.7932 4.41589 66.9495 4.26824C67.1087 4.11776 67.2991 4.04257 67.5206 4.04269C67.7422 4.0428 67.9311 4.11818 68.0873 4.26883C68.2463 4.41664 68.3258 4.59566 68.3256 4.80589C68.3255 5.01328 68.2459 5.19221 68.0867 5.3427C67.9304 5.49034 67.7414 5.56411 67.5199 5.56399ZM72.6178 13.2541C71.9843 13.2538 71.4389 13.1101 70.9816 12.8229C70.5272 12.5329 70.178 12.1336 69.934 11.6249C69.6899 11.1163 69.5681 10.5338 69.5684 9.87756C69.5687 9.21279 69.694 8.6262 69.9443 8.11781C70.1946 7.60658 70.5471 7.20761 71.0017 6.92092C71.4564 6.63422 71.992 6.49104 72.6085 6.49136C73.1057 6.49161 73.5488 6.58417 73.9379 6.76904C74.327 6.95106 74.6408 7.2069 74.8793 7.53657C75.1206 7.86624 75.2638 8.25126 75.3091 8.69162L74.069 8.69098C74.001 8.38413 73.8449 8.11984 73.6007 7.89812C73.3593 7.67641 73.0355 7.56544 72.6293 7.56523C72.2741 7.56505 71.963 7.65863 71.6959 7.846C71.4316 8.03052 71.2255 8.29461 71.0776 8.63829C70.9297 8.97912 70.8556 9.38249 70.8553 9.8484C70.8551 10.3257 70.9273 10.7376 71.072 11.0843C71.2167 11.431 71.4211 11.6995 71.6852 11.89C71.9522 12.0805 72.2661 12.1758 72.6269 12.176C72.8683 12.1762 73.0871 12.1322 73.2832 12.0443C73.4821 11.9535 73.6483 11.8243 73.782 11.6567C73.9184 11.4892 74.0137 11.2875 74.0678 11.0518L75.3078 11.0524C75.2622 11.4757 75.1242 11.8535 74.8939 12.1857C74.6636 12.518 74.3552 12.7792 73.9688 12.9693C73.5852 13.1595 73.1348 13.2544 72.6178 13.2541ZM79.4903 13.2577C78.8454 13.2574 78.2901 13.1193 77.8243 12.8435C77.3614 12.5649 77.0036 12.174 76.7511 11.6711C76.5013 11.1653 76.3766 10.5729 76.377 9.89388C76.3773 9.22343 76.5026 8.63258 76.7529 8.12135C77.006 7.61012 77.3585 7.21115 77.8103 6.92446C78.265 6.63776 78.7964 6.49457 79.4043 6.49489C79.7736 6.49508 80.1316 6.55635 80.4781 6.67868C80.8246 6.80102 81.1356 6.99295 81.411 7.25445C81.6865 7.51596 81.9036 7.85556 82.0625 8.27326C82.2214 8.68811 82.3006 9.19242 82.3003 9.78617L82.3001 10.2379L77.097 10.2352L77.0975 9.28062L81.052 9.28268C81.0522 8.94745 80.9842 8.65054 80.8479 8.39195C80.7117 8.13051 80.52 7.92445 80.273 7.77375C80.0287 7.62305 79.7418 7.54762 79.4123 7.54745C79.0543 7.54726 78.7418 7.63517 78.4747 7.81117C78.2104 7.98432 78.0057 8.21149 77.8607 8.49267C77.7185 8.771 77.6473 9.07352 77.6471 9.40023L77.6467 10.146C77.6465 10.5835 77.723 10.9557 77.8763 11.2626C78.0324 11.5695 78.2496 11.8039 78.5279 11.966C78.8062 12.1253 79.1315 12.205 79.5036 12.2052C79.7451 12.2053 79.9653 12.1713 80.1642 12.1032C80.3631 12.0323 80.535 11.9273 80.68 11.7882C80.8249 11.649 80.9358 11.4772 81.0126 11.2727L82.2185 11.4907C82.1217 11.8457 81.9482 12.1567 81.6981 12.4236C81.4508 12.6877 81.1396 12.8935 80.7645 13.0411C80.3923 13.1857 79.9676 13.258 79.4903 13.2577Z" fill="#FDFDFD"/>
</g>
</svg>

<svg xmlns="http://www.w3.org/2000/svg" width="97" height="19" fill="none"><g opacity=".88"><path fill="#B68EFC" d="m.01 0 45.24.024L96.147.05l-4.718 9.288 4.708 8.86-49.954-.026L0 18.148l4.717-8.855L.01 0Z"/><path fill="#FDFDFD" d="M11.632 4.363h1.598l2.774 6.786h.103l2.782-6.782h1.598l-.005 8.728H19.23l.004-6.316h-.081l-2.578 6.301h-1.04l-2.57-6.309h-.08l-.004 6.32h-1.253l.005-8.728Zm13.42 8.866c-.614 0-1.15-.14-1.607-.422a2.845 2.845 0 0 1-1.065-1.181c-.252-.506-.378-1.097-.378-1.773 0-.68.127-1.273.38-1.781a2.84 2.84 0 0 1 1.066-1.184c.458-.281.993-.422 1.607-.421.614 0 1.149.14 1.606.422a2.84 2.84 0 0 1 1.065 1.186c.253.508.379 1.102.378 1.781 0 .676-.127 1.267-.38 1.773a2.844 2.844 0 0 1-1.066 1.18c-.457.28-.993.42-1.607.42Zm.004-1.07c.398.001.727-.104.989-.314.261-.21.455-.49.58-.84a3.34 3.34 0 0 0 .192-1.154c0-.418-.063-.801-.19-1.15a1.875 1.875 0 0 0-.58-.849c-.261-.213-.59-.32-.988-.32-.401 0-.733.106-.998.32a1.904 1.904 0 0 0-.584.847c-.125.35-.188.733-.188 1.15 0 .42.062.806.187 1.155.128.35.322.63.583.84.264.21.597.316.997.316Zm9.376-4.004-1.155.204a1.37 1.37 0 0 0-.23-.422 1.139 1.139 0 0 0-.417-.329 1.512 1.512 0 0 0-.66-.128c-.361 0-.662.08-.904.243-.242.159-.363.364-.363.617 0 .22.081.395.243.529.162.133.423.243.784.328l1.04.24c.602.14 1.05.354 1.346.644.295.29.443.666.443 1.13 0 .391-.115.74-.342 1.047-.225.304-.539.543-.942.716-.4.173-.865.26-1.394.259-.733 0-1.33-.157-1.794-.47-.462-.315-.746-.763-.851-1.342l1.232-.187c.076.32.234.564.472.729.239.162.55.243.933.243.418 0 .752-.086 1.002-.26.25-.175.375-.39.375-.643a.669.669 0 0 0-.23-.516c-.15-.139-.382-.244-.694-.315l-1.108-.244c-.61-.14-1.062-.361-1.355-.665-.29-.304-.434-.69-.434-1.155 0-.387.109-.725.325-1.014a2.12 2.12 0 0 1 .895-.677c.38-.165.817-.247 1.308-.247.708 0 1.264.154 1.67.461.406.305.675.712.805 1.224Zm4.585-1.596v1.023L35.44 7.58V6.557l3.576.002Zm-2.616-1.57 1.275.001-.004 6.192c0 .247.037.433.111.558a.578.578 0 0 0 .285.252c.12.042.249.064.388.064.102 0 .192-.007.269-.021l.179-.034.23 1.053a2.5 2.5 0 0 1-.827.136 2.244 2.244 0 0 1-.938-.18 1.609 1.609 0 0 1-.703-.58c-.179-.261-.268-.59-.268-.985l.003-6.455Zm14.552 2.233-1.33-.001a2.033 2.033 0 0 0-.796-1.3 2.202 2.202 0 0 0-.677-.342 2.645 2.645 0 0 0-.788-.115c-.503 0-.954.126-1.352.379-.395.252-.707.623-.938 1.111-.227.489-.341 1.085-.341 1.79 0 .71.112 1.31.34 1.798.23.49.543.859.94 1.109.398.25.846.375 1.343.376.275 0 .537-.037.784-.11.25-.077.476-.19.678-.337a2.04 2.04 0 0 0 .806-1.282l1.33.005a3.56 3.56 0 0 1-.415 1.184 3.27 3.27 0 0 1-.78.929 3.528 3.528 0 0 1-1.083.6 4 4 0 0 1-1.33.212c-.755 0-1.428-.18-2.019-.538-.59-.36-1.056-.877-1.397-1.547-.338-.671-.506-1.47-.506-2.4 0-.932.172-1.731.513-2.399.341-.67.807-1.184 1.398-1.542.592-.36 1.264-.54 2.016-.54.463 0 .895.068 1.296.201.403.131.765.325 1.086.58.32.253.586.563.796.93.21.364.352.78.426 1.249Zm2.746 2.004-.002 3.886h-1.274l.005-8.728h1.257l-.002 3.248h.081a1.88 1.88 0 0 1 .704-.839c.315-.207.727-.31 1.236-.31.449 0 .84.092 1.176.277.338.185.599.46.783.827.188.364.281.819.28 1.364l-.001 4.163h-1.274l.002-4.01c0-.48-.123-.853-.37-1.117-.247-.267-.591-.4-1.032-.401-.3 0-.57.064-.81.191a1.382 1.382 0 0 0-.558.563c-.133.244-.2.54-.2.886Zm8.7 4.023c-.614 0-1.15-.141-1.606-.423a2.845 2.845 0 0 1-1.065-1.18c-.253-.507-.379-1.098-.378-1.774 0-.679.127-1.272.38-1.78a2.84 2.84 0 0 1 1.066-1.185c.457-.28.993-.421 1.607-.421.613 0 1.149.141 1.606.423a2.84 2.84 0 0 1 1.065 1.185c.252.509.378 1.102.378 1.781 0 .677-.127 1.267-.38 1.773a2.845 2.845 0 0 1-1.066 1.18c-.458.28-.993.421-1.607.42Zm.005-1.07c.398 0 .727-.104.989-.315.261-.21.454-.49.58-.839.128-.35.192-.734.192-1.155 0-.417-.064-.8-.191-1.15a1.874 1.874 0 0 0-.58-.848c-.26-.214-.59-.32-.988-.32-.4 0-.733.106-.997.318a1.904 1.904 0 0 0-.584.848c-.126.35-.188.733-.188 1.15 0 .421.062.806.187 1.156.127.35.322.629.583.84.264.21.596.315.997.315Zm4.468.94.004-6.545h1.274l-.003 6.546h-1.275Zm.648-7.555a.81.81 0 0 1-.571-.222.72.72 0 0 1-.234-.537c0-.21.078-.39.234-.537.16-.15.35-.225.572-.225.221 0 .41.075.566.226a.706.706 0 0 1 .239.537c0 .207-.08.386-.24.537a.795.795 0 0 1-.566.221Zm5.098 7.69c-.634 0-1.18-.144-1.636-.431a2.848 2.848 0 0 1-1.048-1.198c-.244-.509-.366-1.091-.366-1.747 0-.665.126-1.252.376-1.76.25-.511.603-.91 1.058-1.197.454-.287.99-.43 1.607-.43.497 0 .94.093 1.329.278.389.182.703.438.941.768.242.33.385.714.43 1.155l-1.24-.001a1.486 1.486 0 0 0-.468-.793c-.242-.222-.566-.333-.972-.333-.355 0-.666.094-.933.281-.264.185-.47.449-.618.792-.148.341-.222.744-.223 1.21 0 .478.072.89.217 1.236.145.347.35.616.613.806.267.19.581.286.942.286.241 0 .46-.044.656-.132.2-.09.365-.22.499-.387.136-.168.232-.37.286-.605h1.24a2.408 2.408 0 0 1-.414 1.134c-.23.332-.539.593-.925.783-.384.19-.834.285-1.351.285Zm6.872.004c-.645 0-1.2-.139-1.666-.414a2.803 2.803 0 0 1-1.073-1.173c-.25-.506-.374-1.098-.374-1.777 0-.67.126-1.261.376-1.773.253-.51.606-.91 1.057-1.197.455-.286.986-.43 1.594-.43.37.001.728.062 1.074.185a2.6 2.6 0 0 1 .933.575c.275.262.493.602.651 1.02.16.414.239.918.238 1.512v.452l-5.203-.003v-.954l3.955.002a1.88 1.88 0 0 0-.204-.891 1.547 1.547 0 0 0-.575-.618 1.608 1.608 0 0 0-.86-.227c-.359 0-.671.088-.938.264-.265.173-.47.4-.614.682-.142.278-.214.58-.214.907v.746c0 .438.076.81.23 1.117.155.306.373.54.65.703.28.16.605.239.977.24.241 0 .461-.035.66-.103a1.371 1.371 0 0 0 .848-.83l1.207.218c-.097.355-.27.666-.52.933a2.52 2.52 0 0 1-.934.617 3.493 3.493 0 0 1-1.275.217Z"/></g></svg>
